X:7836
T:James Gannon's Barndance
R:barndance
C:traditional
O:Irish
D:Michael Coleman, 1891-1945
D:Mike MacDougall, Tape for Father Hector
D:Kinnon Beaton, Saturday Night Lively
N:Contacts ...
N:..... Cranford Publications <http://www.cranfordpub.com>
Z:This abc transcription is for personal use only,
Z:provided this notice remains attached.
Z:Paul Stewart Cranford 
Q:288
L:1/8
M:C|
K:G
z2|B2 AB e2 dB|d2 cA E2 FG|A>AA>B c<AEF|GABG D2 B,2|!
B/c/B AB e2 dB|d2 cA E2 FG|A>AA>B c<AFA |G2 g2 g2:|!
|:gf|e^def gfga|b2 d2 d2 (3ded|cBAB cdef|g2 B2 dgfg|!
e^def gfga|b2 d2 d2 (3ded|cBAB cdef|(3gag fa g2:|!
